X:1
T:Title
%%score { ( 1 3 ) | 2 }
L:1/8
M:3/4
K:Eb
V:1 treble nm="Grand Piano"
V:3 treble 
V:2 bass 
V:1
 z2 z2[Q:1/4=94] E2 | G3 G [GB]E | G3 G FC | D3 E [=A,EG][A,EF] | [B,DF]3 [B,EG] [B,EG][B,EG] | %5
 [_DGB]3 G FE | c4 e2 | d3 F =Ac | [DB]4 [FA]2 | [EG][Ec] [DB]2 D2 |[M:5/8] E- E3 z |[M:1/8] B | %12
[M:3/4] z2 [GB]4 | [EGB][B,EG] [EGB]3 G | z2 [GB]4 | [B,FA][B,EG] [B,EG]3 [EB] | %16
 [Ge][Ge] [GB]3 [GB] | cc A3 F | [Fd][Ec] [DB]2 D2 |[M:2/4] E4 |] %20
V:2
 z2 z2 [E,G,B,]2 | [E,B,E]3 [E,B,E] [E,E][E,G,B,] | [E,B,E]3 [E,B,E] [F,=A,E][F,A,] | %3
 [F,=A,C]3 [F,A,C] F,,F,, | B,,3 E, E,E, | E,3 [E,_DE] [F,B,D][G,D] | [A,CE]4 [G,B,E]2 | %7
 [F,B,F]3 [F,B,D] [F,CE][F,=A,E] | [B,,B,]4 [D,B,]2 | [E,B,][A,,A,] [B,,F,]2 [B,,A,B,]2 | %10
[M:5/8] [E,G,B,]- [E,G,B,]3 z |[M:1/8][K:treble] G |[M:3/4] G[K:bass]E, E,E, E,E, | E,E, E,3 E | %14
 DB,, B,,C, D,B,, | E,E, E,3 [E,G,] | [E,B,][E,B,] [E,E]3 [E,E] | %17
 [A,EA][A,EA] [A,CF]3[K:bass] [A,CE] | [A,,A,][A,,G,] [B,,F,]2 [B,,A,B,]2 |[M:2/4] [E,G,B,]4 |] %20
V:3
 x6 | x6 | x6 | x6 | x6 | x6 | x6 | x6 | x6 | x6 |[M:5/8] x5 |[M:1/8] x | %12
[M:3/4] B[B,EG] EE E[EAc] | x6 | F[B,EG] DC B,[B,DF] | x6 | x6 | x6 | x6 |[M:2/4] x4 |] %20

